lib/healthicons/icons/outline/places/church.svg

<svg fill="none" height="48" viewBox="0 0 48 48" width="48" xmlns="http://www.w3.org/2000/svg"><g fill="#333"><path d="m31.3519 17.6661-6.3519-4.2035v-2.4626h3v-2h-3v-3h-2v3h-3v2h3v2.4626l-6.3519 4.2035c-.2798.1852-.4481.4983-.4481.8339v4.3766l-9.56013 3.6905c-.38559.1488-.63987.5196-.63987.9329v14.5h2v-13.8141l9.5601-3.6905c.3856-.1488.6399-.5196.6399-.9329v-4.5251l5.8-3.8383 5.8 3.8383v4.5251c0 .4499.3005.8444.7342.964l9.4658 2.6101v14.8634h2v-15.625c0-.4499-.3005-.8444-.7342-.964l-9.4658-2.6101v-4.3009c0-.3356-.1683-.6487-.4481-.8339z"/><path d="m17 30c0-.5523-.4477-1-1-1s-1 .4477-1 1v12h2z"/><path d="m32 29c.5523 0 1 .4477 1 1v12h-2v-12c0-.5523.4477-1 1-1z"/><path d="m24 30c-1.6569 0-3 1.3431-3 3v9h6v-9c0-1.6569-1.3431-3-3-3z"/></g></svg>

<svg width="48" height="48" viewBox="0 0 48 48" fill="none" xmlns="http://www.w3.org/2000/svg">
<path d="M31.3519 17.6661L25 13.4626V11L28 11V9L25 9V6H23V9L20 9V11L23 11V13.4626L16.6481 17.6661C16.3683 17.8513 16.2 18.1644 16.2 18.5V22.8766L6.63987 26.5671C6.25428 26.7159 6 27.0867 6 27.5V42H8V28.1859L17.5601 24.4954C17.9457 24.3466 18.2 23.9758 18.2 23.5625V19.0374L24 15.1991L29.8 19.0374V23.5625C29.8 24.0124 30.1005 24.4069 30.5342 24.5265L40 27.1366V42H42V26.375C42 25.9251 41.6995 25.5306 41.2658 25.411L31.8 22.8009V18.5C31.8 18.1644 31.6317 17.8513 31.3519 17.6661Z" fill="#333333"/>
<path d="M17 30C17 29.4477 16.5523 29 16 29C15.4477 29 15 29.4477 15 30L15 42H17L17 30Z" fill="#333333"/>
<path d="M32 29C32.5523 29 33 29.4477 33 30V42H31V30C31 29.4477 31.4477 29 32 29Z" fill="#333333"/>
<path d="M24 30C22.3431 30 21 31.3431 21 33V42H27V33C27 31.3431 25.6569 30 24 30Z" fill="#333333"/>
</svg>
